Sources/KromoraKit/Resources/StarterLooks/bleached-daylight.cube
# Original Kromora starter Look: Bleached Daylight
TITLE "Bleached Daylight"
LUT_3D_SIZE 3
0.160000 0.170000 0.180000
0.314410 0.244410 0.254410
0.468820 0.318820 0.328820
0.410320 0.480320 0.430320
0.564730 0.554730 0.504730
0.719140 0.629140 0.579140
0.660640 0.790640 0.680640
0.815050 0.865050 0.755050
0.969460 0.939460 0.829460
0.185270 0.195270 0.255270
0.339680 0.269680 0.329680
0.494090 0.344090 0.404090
0.435590 0.505590 0.505590
0.590000 0.580000 0.580000
0.744410 0.654410 0.654410
0.685910 0.815910 0.755910
0.840320 0.890320 0.830320
0.994730 0.964730 0.904730
0.210540 0.220540 0.330540
0.364950 0.294950 0.404950
0.519360 0.369360 0.479360
0.460860 0.530860 0.580860
0.615270 0.605270 0.655270
0.769680 0.679680 0.729680
0.711180 0.841180 0.831180
0.865590 0.915590 0.905590
1.000000 0.990000 0.980000
