Sources/KromoraKit/Resources/StarterLooks/blueprint-mono.cube
# Original Kromora starter Look: Blueprint Mono
TITLE "Blueprint Mono"
LUT_3D_SIZE 3
0.080000 0.080000 0.080000
0.226401 0.226401 0.226401
0.338458 0.338458 0.338458
0.475889 0.475889 0.475889
0.570067 0.570067 0.570067
0.660404 0.660404 0.660404
0.778905 0.778905 0.778905
0.863008 0.863008 0.863008
0.945168 0.945168 0.945168
0.140387 0.140387 0.140387
0.266066 0.266066 0.266066
0.373929 0.373929 0.373929
0.508374 0.508374 0.508374
0.601127 0.601127 0.601127
0.690368 0.690368 0.690368
0.807704 0.807704 0.807704
0.891113 0.891113 0.891113
0.972676 0.972676 0.972676
0.186608 0.186608 0.186608
0.303940 0.303940 0.303940
0.408481 0.408481 0.408481
0.540327 0.540327 0.540327
0.631784 0.631784 0.631784
0.720012 0.720012 0.720012
0.836255 0.836255 0.836255
0.919006 0.919006 0.919006
1.000000 1.000000 1.000000
