Sources/KromoraKit/Resources/StarterLooks/ember-cyan.cube
# Original Kromora starter Look: Ember & Cyan
TITLE "Ember & Cyan"
LUT_3D_SIZE 3
0.040000 0.070000 0.300000
0.433600 0.070000 0.210000
0.827200 0.070000 0.120000
0.126400 0.480000 0.300000
0.520000 0.480000 0.210000
0.913600 0.480000 0.120000
0.212800 0.890000 0.300000
0.606400 0.890000 0.210000
1.000000 0.890000 0.120000
0.040000 0.120000 0.740000
0.433600 0.120000 0.650000
0.827200 0.120000 0.560000
0.126400 0.530000 0.740000
0.520000 0.530000 0.650000
0.913600 0.530000 0.560000
0.212800 0.940000 0.740000
0.606400 0.940000 0.650000
1.000000 0.940000 0.560000
0.040000 0.170000 1.000000
0.433600 0.170000 1.000000
0.827200 0.170000 1.000000
0.126400 0.580000 1.000000
0.520000 0.580000 1.000000
0.913600 0.580000 1.000000
0.212800 0.990000 1.000000
0.606400 0.990000 1.000000
1.000000 0.990000 1.000000
