Sources/KromoraKit/Resources/StarterLooks/forest-shadow.cube
# Original Kromora starter Look: Forest Shadow
TITLE "Forest Shadow"
LUT_3D_SIZE 3
0.030000 0.080000 0.050000
0.111654 0.162914 0.101024
0.193308 0.245828 0.152048
0.237408 0.428928 0.221648
0.319062 0.511842 0.272672
0.400716 0.594756 0.323696
0.444816 0.777856 0.393296
0.526470 0.860770 0.444320
0.608124 0.943684 0.495344
0.050938 0.108158 0.087328
0.132592 0.191072 0.138352
0.214246 0.273986 0.189376
0.258346 0.457086 0.258976
0.340000 0.540000 0.310000
0.421654 0.622914 0.361024
0.465754 0.806014 0.430624
0.547408 0.888928 0.481648
0.629062 0.971842 0.532672
0.071876 0.136316 0.124656
0.153530 0.219230 0.175680
0.235184 0.302144 0.226704
0.279284 0.485244 0.296304
0.360938 0.568158 0.347328
0.442592 0.651072 0.398352
0.486692 0.834172 0.467952
0.568346 0.917086 0.518976
0.650000 1.000000 0.570000
