Sources/KromoraKit/Resources/StarterLooks/honey-negative.cube
# Original Kromora starter Look: Honey Negative
TITLE "Honey Negative"
LUT_3D_SIZE 3
0.080000 0.070000 0.060000
0.518504 0.080630 0.065315
0.957008 0.091260 0.070630
0.108608 0.525760 0.077880
0.547112 0.536390 0.083195
0.985616 0.547020 0.088510
0.137216 0.981520 0.095760
0.575720 0.992150 0.101075
1.000000 1.000000 0.106390
0.082888 0.073610 0.401805
0.521392 0.084240 0.407120
0.959896 0.094870 0.412435
0.111496 0.529370 0.419685
0.550000 0.540000 0.425000
0.988504 0.550630 0.430315
0.140104 0.985130 0.437565
0.578608 0.995760 0.442880
1.000000 1.000000 0.448195
0.085776 0.077220 0.743610
0.524280 0.087850 0.748925
0.962784 0.098480 0.754240
0.114384 0.532980 0.761490
0.552888 0.543610 0.766805
0.991392 0.554240 0.772120
0.142992 0.988740 0.779370
0.581496 0.999370 0.784685
1.000000 1.000000 0.790000
