Sources/KromoraKit/Resources/StarterLooks/infrared-mono.cube
# Original Kromora starter Look: Infrared Mono
TITLE "Infrared Mono"
LUT_3D_SIZE 3
0.000500 0.000500 0.000500
0.189500 0.189500 0.189500
0.378500 0.378500 0.378500
0.621500 0.621500 0.621500
0.810500 0.810500 0.810500
0.999500 0.999500 0.999500
1.000000 1.000000 1.000000
1.000000 1.000000 1.000000
1.000000 1.000000 1.000000
0.054500 0.054500 0.054500
0.243500 0.243500 0.243500
0.432500 0.432500 0.432500
0.675500 0.675500 0.675500
0.864500 0.864500 0.864500
1.000000 1.000000 1.000000
1.000000 1.000000 1.000000
1.000000 1.000000 1.000000
1.000000 1.000000 1.000000
0.108500 0.108500 0.108500
0.297500 0.297500 0.297500
0.486500 0.486500 0.486500
0.729500 0.729500 0.729500
0.918500 0.918500 0.918500
1.000000 1.000000 1.000000
1.000000 1.000000 1.000000
1.000000 1.000000 1.000000
1.000000 1.000000 1.000000
