Sources/KromoraKit/Resources/StarterLooks/midnight-slate.cube
# Original Kromora starter Look: Midnight Slate
TITLE "Midnight Slate"
LUT_3D_SIZE 3
0.030000 0.070000 0.140000
0.112402 0.139095 0.225040
0.194804 0.208190 0.310080
0.223104 0.342440 0.426080
0.305506 0.411535 0.511120
0.387908 0.480630 0.596160
0.416208 0.614880 0.712160
0.498610 0.683975 0.797200
0.581012 0.753070 0.882240
0.049494 0.093465 0.248880
0.131896 0.162560 0.333920
0.214298 0.231655 0.418960
0.242598 0.365905 0.534960
0.325000 0.435000 0.620000
0.407402 0.504095 0.705040
0.435702 0.638345 0.821040
0.518104 0.707440 0.906080
0.600506 0.776535 0.991120
0.068988 0.116930 0.357760
0.151390 0.186025 0.442800
0.233792 0.255120 0.527840
0.262092 0.389370 0.643840
0.344494 0.458465 0.728880
0.426896 0.527560 0.813920
0.455196 0.661810 0.929920
0.537598 0.730905 1.000000
0.620000 0.800000 1.000000
