Sources/KromoraKit/Resources/StarterLooks/neon-dusk.cube
# Original Kromora starter Look: Neon Dusk
TITLE "Neon Dusk"
LUT_3D_SIZE 3
0.080000 0.050000 0.320000
0.520000 0.050000 0.320000
0.960000 0.050000 0.320000
0.080000 0.390000 0.240000
0.520000 0.390000 0.240000
0.960000 0.390000 0.240000
0.080000 0.730000 0.160000
0.520000 0.730000 0.160000
0.960000 0.730000 0.160000
0.140000 0.150000 0.680000
0.580000 0.150000 0.680000
1.000000 0.150000 0.680000
0.140000 0.490000 0.600000
0.580000 0.490000 0.600000
1.000000 0.490000 0.600000
0.140000 0.830000 0.520000
0.580000 0.830000 0.520000
1.000000 0.830000 0.520000
0.200000 0.250000 1.000000
0.640000 0.250000 1.000000
1.000000 0.250000 1.000000
0.200000 0.590000 0.960000
0.640000 0.590000 0.960000
1.000000 0.590000 0.960000
0.200000 0.930000 0.880000
0.640000 0.930000 0.880000
1.000000 0.930000 0.880000
