Sources/KromoraKit/Resources/StarterLooks/paper-grain.cube
# Original Kromora starter Look: Paper Grain
TITLE "Paper Grain"
LUT_3D_SIZE 3
0.150000 0.150000 0.150000
0.226536 0.226536 0.226536
0.303072 0.303072 0.303072
0.407472 0.407472 0.407472
0.484008 0.484008 0.484008
0.560544 0.560544 0.560544
0.664944 0.664944 0.664944
0.741480 0.741480 0.741480
0.818016 0.818016 0.818016
0.175992 0.175992 0.175992
0.252528 0.252528 0.252528
0.329064 0.329064 0.329064
0.433464 0.433464 0.433464
0.510000 0.510000 0.510000
0.586536 0.586536 0.586536
0.690936 0.690936 0.690936
0.767472 0.767472 0.767472
0.844008 0.844008 0.844008
0.201984 0.201984 0.201984
0.278520 0.278520 0.278520
0.355056 0.355056 0.355056
0.459456 0.459456 0.459456
0.535992 0.535992 0.535992
0.612528 0.612528 0.612528
0.716928 0.716928 0.716928
0.793464 0.793464 0.793464
0.870000 0.870000 0.870000
