Sources/KromoraKit/Resources/StarterLooks/pastel-wash.cube
# Original Kromora starter Look: Pastel Wash
TITLE "Pastel Wash"
LUT_3D_SIZE 3
0.180000 0.190000 0.220000
0.530000 0.190000 0.220000
0.880000 0.190000 0.220000
0.180000 0.540000 0.220000
0.530000 0.540000 0.220000
0.880000 0.540000 0.220000
0.180000 0.890000 0.220000
0.530000 0.890000 0.220000
0.880000 0.890000 0.220000
0.180000 0.190000 0.560000
0.530000 0.190000 0.560000
0.880000 0.190000 0.560000
0.180000 0.540000 0.560000
0.530000 0.540000 0.560000
0.880000 0.540000 0.560000
0.180000 0.890000 0.560000
0.530000 0.890000 0.560000
0.880000 0.890000 0.560000
0.180000 0.190000 0.900000
0.530000 0.190000 0.900000
0.880000 0.190000 0.900000
0.180000 0.540000 0.900000
0.530000 0.540000 0.900000
0.880000 0.540000 0.900000
0.180000 0.890000 0.900000
0.530000 0.890000 0.900000
0.880000 0.890000 0.900000
