Sources/KromoraKit/Resources/StarterLooks/silver-noir.cube
# Original Kromora starter Look: Silver Noir
TITLE "Silver Noir"
LUT_3D_SIZE 3
0.000000 0.000000 0.000000
0.000000 0.000000 0.000000
0.054530 0.054530 0.054530
0.279280 0.279280 0.279280
0.444045 0.444045 0.444045
0.608810 0.608810 0.608810
0.833560 0.833560 0.833560
0.998325 0.998325 0.998325
1.000000 1.000000 1.000000
0.000000 0.000000 0.000000
0.000000 0.000000 0.000000
0.110485 0.110485 0.110485
0.335235 0.335235 0.335235
0.500000 0.500000 0.500000
0.664765 0.664765 0.664765
0.889515 0.889515 0.889515
1.000000 1.000000 1.000000
1.000000 1.000000 1.000000
0.000000 0.000000 0.000000
0.001675 0.001675 0.001675
0.166440 0.166440 0.166440
0.391190 0.391190 0.391190
0.555955 0.555955 0.555955
0.720720 0.720720 0.720720
0.945470 0.945470 0.945470
1.000000 1.000000 1.000000
1.000000 1.000000 1.000000
